X: 1
T: Going Down to Cairo (Kay-roe)   [A]
%O: Kentucky
R: reel, play-party
F: http://www.tunearch.org/wiki/Going_Down_to_Cairo 2016-3-6
M: 2/4
L: 1/8
K: A
|:\
"A"e2 e>d | ce- ed | cA A/c/B/A/ | "E7"GE- E2 |\
"A"e2 e>d | ce- ed | "E7"cA BG | "A"A4 :|
|:\
"A"AA "E7"BB | "A"cc "D"d2 | "A"cA- A2 | "E7"GE- EE |\
"A"AA "E7"BB | "A"cc "D"d2 | "A"cA "E7"BG | "A"A4 |]
%%text Often sung without the repeats.

%%sep 1 1 500
%%sep 1 1 500

